dist/svgs/crypto-icons/icons/nlg.svg

<?xml version="1.0" encoding="UTF-8" standalone="yes"?>
<svg xmlns="http://www.w3.org/2000/svg" xmlns:xlink="http://www.w3.org/1999/xlink" width="512px" height="512px" viewBox="0 0 384 384" version="1.1">
  <g id="surface1">
    <path style=" stroke:none;fill-rule:nonzero;fill:rgb(0%,0%,0%);fill-opacity:1;" d="M 191.695312 170.976562 L 191.695312 212.164062 L 340.269531 212.164062 C 330.289062 285.308594 267.574219 341.667969 191.695312 341.667969 C 108.863281 341.667969 41.71875 274.527344 41.71875 191.695312 C 41.71875 108.867188 108.863281 41.71875 191.695312 41.71875 C 233.132812 41.71875 270.640625 58.527344 297.78125 85.695312 L 327.707031 56.617188 C 292.980469 21.65625 244.867188 0 191.695312 0 C 85.824219 0 0 85.824219 0 191.691406 C 0 297.5625 85.824219 383.386719 191.695312 383.386719 C 297.5625 383.386719 383.386719 297.5625 383.386719 191.691406 C 383.386719 184.6875 383 177.777344 382.269531 170.972656 L 191.695312 170.972656 Z M 191.695312 170.976562 "/>
  </g>
</svg>

<svg xmlns="http://www.w3.org/2000/svg" viewBox="0 0 384 384"><path d="M191.695 170.977v41.187H340.27c-9.98 73.145-72.696 129.504-148.575 129.504-82.832 0-149.976-67.14-149.976-149.973 0-82.828 67.144-149.976 149.976-149.976 41.438 0 78.946 16.808 106.086 43.976l29.926-29.078C292.98 21.657 244.867 0 191.695 0 85.825 0 0 85.824 0 191.691c0 105.871 85.824 191.696 191.695 191.696 105.868 0 191.692-85.825 191.692-191.696 0-7.004-.387-13.914-1.117-20.718H191.695zm0 0"/></svg>
